communes/245.svg

<?xml version="1.0" encoding="UTF-8" standalone="no"?>
<svg
   xmlns:dc="http://purl.org/dc/elements/1.1/"
   xmlns:cc="http://creativecommons.org/ns#"
   xmlns:rdf="http://www.w3.org/1999/02/22-rdf-syntax-ns#"
   xmlns:svg="http://www.w3.org/2000/svg"
   xmlns="http://www.w3.org/2000/svg"
   xmlns:xlink="http://www.w3.org/1999/xlink"
   xmlns:sodipodi="http://sodipodi.sourceforge.net/DTD/sodipodi-0.dtd"
   xmlns:inkscape="http://www.inkscape.org/namespaces/inkscape"
   version="1.0"
   width="231.51285"
   height="271.18127"
   id="svg2780"
   sodipodi:docname="245.svg">
  <metadata
     id="metadata21">
    <rdf:RDF>
      <cc:Work
         rdf:about="">
        <dc:format>image/svg+xml</dc:format>
        <dc:type
           rdf:resource="http://purl.org/dc/dcmitype/StillImage" />
      </cc:Work>
    </rdf:RDF>
  </metadata>
  <sodipodi:namedview
     pagecolor="#ffffff"
     bordercolor="#666666"
     borderopacity="1"
     objecttolerance="10"
     gridtolerance="10"
     guidetolerance="10"
     inkscape:pageopacity="0"
     inkscape:pageshadow="2"
     inkscape:window-width="640"
     inkscape:window-height="480"
     id="namedview19" />
  <defs
     id="defs2782" />
  <g
     transform="translate(-18.714025,-799.30667)"
     id="layer1">
    <path
       d="M 19.714025,800.30667 L 23.886982,975.58748 C 26.867657,1100.7881 242.07324,1100.7881 245.05392,975.58748 L 249.22688,800.30667 L 19.714025,800.30667 z"
       id="path3282"
       style="fill:#216bce;fill-opacity:1;fill-rule:evenodd;stroke:#000000;stroke-width:2;stroke-linecap:butt;stroke-miterlimit:4;stroke-dashoffset:0;stroke-opacity:1" />
    <g
       transform="matrix(-1.2888902,0,0,1.2886735,281.22734,-243.77881)"
       id="g2731"
       style="fill:#ffffff;stroke:#000000;stroke-width:0.97105801;stroke-opacity:1">
      <path
         d="M 115.69681,938.72557 C 113.18798,906.58831 101.39265,865.1281 79.31767,840.82009 C 78.497179,839.9166 77.498189,839.87225 76.730078,840.82009 C 53.159463,869.90583 44.426967,902.04295 40.350943,938.72557 C 65.700111,949.56058 90.278489,947.43425 115.69681,938.72557 z"
         id="path4911"
         style="fill:#ffffff;fill-opacity:1;fill-rule:evenodd;stroke:#000000;stroke-width:0.77592653px;stroke-linecap:butt;stroke-linejoin:round;stroke-opacity:1" />
      <path
         d="M 40.45406,934.59121 C 65.807858,946.39648 91.071906,945.78153 116.39837,934.58905"
         id="path4823"
         style="fill:#ffffff;fill-opacity:1;fill-rule:evenodd;stroke:#000000;stroke-width:0.77592653px;stroke-linecap:butt;stroke-linejoin:round;stroke-opacity:1" />
      <path
         d="M 62.457022,974.66746 L 78.305517,978.29894 L 94.313501,974.66746 C 95.034154,946.48552 92.85769,917.19785 80.557737,891.42461 C 79.540337,889.29278 77.24902,889.30198 76.212787,891.42461 C 63.623591,917.21249 62.205787,946.48061 62.457022,974.66746 z"
         id="path4396"
         style="fill:#ffffff;fill-opacity:1;fill-rule:evenodd;stroke:#000000;stroke-width:0.77592653px;stroke-linecap:butt;stroke-linejoin:miter;stroke-opacity:1" />
      <path
         d="M 61.128813,944.78069 L 59.104225,972.07021 L 72.224536,963.77951 L 72.371383,940.87312 C 69.80232,941.2269 63.055617,942.68219 61.128813,944.78069 z"
         id="path4924"
         style="fill:#ffffff;fill-opacity:1;fill-rule:evenodd;stroke:#000000;stroke-width:0.77531558;stroke-linecap:butt;stroke-linejoin:round;stroke-miterlimit:4;stroke-dasharray:none;stroke-opacity:1" />
      <use
         transform="matrix(-1,0,0,1,156.86832,-3.5197119e-6)"
         id="use4380"
         style="fill:#ffffff;fill-opacity:1;stroke:#000000;stroke-width:1.27686584;stroke-opacity:1"
         x="0"
         y="0"
         width="248.03149"
         height="248.03149"
         xlink:href="#path4924" />
      <path
         d="M 78.43416,975.97278 C 85.239498,975.97278 92.442286,974.19293 92.442286,970.97969 C 92.442286,968.60354 87.175678,967.12453 83.138775,966.02264 L 84.643785,963.77951 C 90.374755,964.43494 97.764098,968.15549 97.764098,972.44426 C 97.764098,976.8214 88.765063,980.26812 78.43416,980.26812 C 68.103258,980.26812 59.10422,976.8214 59.10422,972.44426 C 59.10422,968.15549 66.493566,964.43494 72.224536,963.77951 L 73.72954,966.02264 C 69.692637,967.12453 64.426029,968.60354 64.426029,970.97969 C 64.426029,974.19293 71.628817,975.97278 78.43416,975.97278 z"
         id="path4918"
         style="fill:#ffffff;fill-opacity:1;fill-rule:evenodd;stroke:#000000;stroke-width:0.77531558;stroke-linecap:butt;stroke-linejoin:round;stroke-miterlimit:4;stroke-dasharray:none;stroke-opacity:1" />
      <path
         d="M 72.371377,940.87312 L 73.729534,943.5791 L 73.729534,966.02264 L 72.371377,963.31666 L 72.371377,940.87312 z"
         id="rect4377"
         style="color:#000000;fill:#ffffff;fill-opacity:1;fill-rule:evenodd;stroke:#000000;stroke-width:0.77531558;stroke-linecap:butt;stroke-linejoin:round;marker:none;marker-start:none;marker-mid:none;marker-end:none;stroke-miterlimit:4;stroke-dashoffset:0;stroke-opacity:1;visibility:visible;display:inline;overflow:visible;enable-background:accumulate" />
      <use
         transform="matrix(-1,0,0,1,156.86833,-4.8471482e-6)"
         id="use4382"
         style="fill:#ffffff;fill-opacity:1;stroke:#000000;stroke-width:1.27686584;stroke-opacity:1"
         x="0"
         y="0"
         width="248.03149"
         height="248.03149"
         xlink:href="#rect4377" />
    </g>
    <g
       transform="matrix(-1.0684601,0,0,1.0684601,486.85268,-58.568751)"
       id="g4418">
      <path
         d="M 364.21023,1000.6914 C 364.092,1004.6839 367.4492,1009.941 373.79618,1009.941 C 380.14181,1009.941 383.50037,1004.6839 383.38213,1000.6914 L 381.68678,943.4432 L 365.90556,943.4432 L 364.21023,1000.6914 z"
         id="path4409"
         style="fill:#ffff00;fill-opacity:1;fill-rule:evenodd;stroke:#000000;stroke-width:0.93592638px;stroke-linecap:butt;stroke-linejoin:miter;stroke-opacity:1" />
      <path
         d="M 373.01704,142.09692 L 363.3599,125.63631 C 378.08146,95.493795 366.27182,49.757257 329.21306,60.578978 C 359.60278,-5.5027523 461.67867,48.735923 373.01704,142.09692 z"
         transform="translate(0,804.33069)"
         id="path4416"
         style="fill:#ffffff;fill-opacity:1;fill-rule:evenodd;stroke:#000000;stroke-width:0.93518943;stroke-linecap:butt;stroke-linejoin:round;stroke-miterlimit:4;stroke-dasharray:none;stroke-opacity:1" />
      <rect
         width="26.212515"
         height="11.0734"
         rx="4.9596324"
         ry="4.9596319"
         x="360.68994"
         y="936.57764"
         id="rect4414"
         style="opacity:1;color:#000000;fill:#ffff00;fill-opacity:1;fill-rule:evenodd;stroke:#000000;stroke-width:0.93592656px;stroke-linecap:butt;stroke-linejoin:miter;marker:none;marker-start:none;marker-mid:none;marker-end:none;stroke-miterlimit:4;stroke-dasharray:none;stroke-dashoffset:0;stroke-opacity:1;visibility:visible;display:inline;overflow:visible;enable-background:accumulate" />
    </g>
  </g>
</svg>

<?xml version="1.0" encoding="UTF-8"?>
<svg version="1.0" viewBox="0 0 231.51 271.18" xmlns="http://www.w3.org/2000/svg" xmlns:cc="http://creativecommons.org/ns#" xmlns:dc="http://purl.org/dc/elements/1.1/" xmlns:rdf="http://www.w3.org/1999/02/22-rdf-syntax-ns#" xmlns:xlink="http://www.w3.org/1999/xlink">
<metadata>
<rdf:RDF>
<cc:Work rdf:about="">
<dc:format>image/svg+xml</dc:format>
<dc:type rdf:resource="http://purl.org/dc/dcmitype/StillImage"/>
</cc:Work>
</rdf:RDF>
</metadata>
<g transform="translate(-18.714 -799.31)" stroke="#000">
<path d="m19.714 800.31 4.173 175.28c2.9807 125.2 218.19 125.2 221.17 0l4.173-175.28h-229.51z" fill="#216bce" fill-rule="evenodd" stroke-width="2"/>
<g transform="matrix(-1.2889 0 0 1.2887 281.23 -243.78)">
<path d="m115.7 938.73c-2.5088-32.137-14.304-73.597-36.379-97.905-0.82049-0.90349-1.8195-0.94784-2.5876 0-23.571 29.086-32.303 61.223-36.379 97.905 25.349 10.835 49.928 8.7087 75.346 0z" fill="#fff" fill-rule="evenodd" stroke="#000" stroke-linejoin="round" stroke-width=".77593px"/>
<path d="m40.454 934.59c25.354 11.805 50.618 11.19 75.944-0.00216" fill="#fff" fill-rule="evenodd" stroke="#000" stroke-linejoin="round" stroke-width=".77593px"/>
<path d="m62.457 974.67 15.848 3.6315 16.008-3.6315c0.72065-28.182-1.4558-57.47-13.756-83.243-1.0174-2.1318-3.3087-2.1226-4.345 0-12.589 25.788-14.007 55.056-13.756 83.243z" fill="#fff" fill-rule="evenodd" stroke="#000" stroke-width=".77593px"/>
<path id="b" d="m61.129 944.78-2.0246 27.29 13.12-8.2907 0.14685-22.906c-2.5691 0.35378-9.3158 1.8091-11.243 3.9076z" fill="#fff" fill-rule="evenodd" stroke="#000" stroke-linejoin="round" stroke-width=".77532"/>
<use transform="matrix(-1 0 0 1 156.87 -3.5197e-6)" width="248.03149" height="248.03149" fill="#ffffff" stroke="#000000" stroke-width="1.2769" xlink:href="#b"/>
<path d="m78.434 975.97c6.8053 0 14.008-1.7798 14.008-4.9931 0-2.3762-5.2666-3.8552-9.3035-4.957l1.505-2.2431c5.731 0.65543 13.12 4.376 13.12 8.6648 0 4.3771-8.999 7.8239-19.33 7.8239-10.331 0-19.33-3.4467-19.33-7.8239 0-4.2888 7.3893-8.0093 13.12-8.6648l1.505 2.2431c-4.0369 1.1019-9.3035 2.5809-9.3035 4.957 0 3.2132 7.2028 4.9931 14.008 4.9931z" fill="#fff" fill-rule="evenodd" stroke="#000" stroke-linejoin="round" stroke-width=".77532"/>
<path id="a" d="m72.371 940.87 1.3582 2.706v22.444l-1.3582-2.706v-22.444z" color="#000000" fill="#fff" fill-rule="evenodd" stroke="#000" stroke-linejoin="round" stroke-width=".77532"/>
<use transform="matrix(-1 0 0 1 156.87 -4.8471e-6)" width="248.03149" height="248.03149" fill="#ffffff" stroke="#000000" stroke-width="1.2769" xlink:href="#a"/>
</g>
<g transform="matrix(-1.0685 0 0 1.0685 486.85 -58.569)" fill-rule="evenodd">
<path d="m364.21 1000.7c-0.11823 3.9925 3.239 9.2496 9.586 9.2496 6.3456 0 9.7042-5.2571 9.586-9.2496l-1.6954-57.248h-15.781l-1.6953 57.248z" fill="#ff0" stroke-width=".93593px"/>
<path transform="translate(0 804.33)" d="m373.02 142.1-9.6571-16.461c14.722-30.143 2.9119-75.879-34.147-65.057 30.39-66.082 132.47-11.843 43.804 81.518z" fill="#fff" stroke-linejoin="round" stroke-width=".93519"/>
<rect x="360.69" y="936.58" width="26.213" height="11.073" rx="4.9596" ry="4.9596" color="#000000" fill="#ff0" stroke-width=".93593px"/>
</g>
</g>
</svg>
